img/manaSymbols/fab/fabu.svg

﻿<?xml version="1.0" encoding="utf-8"?>
<svg width="135" height="135" viewBox="0 0 135 135" version="1.1" xmlns="http://www.w3.org/2000/svg" xml:space="preserve" style="fill-rule: evenodd; clip-rule: evenodd; stroke-linejoin: round; stroke-miterlimit: 2;" preserveAspectRatio="xMidYMid meet" zoomAndPan="magnify" contentScriptType="application/ecmascript" contentStyleType="text/css">
  <g transform="matrix(1,0,0,1,-745,-818) matrix(1,0,0,1,1177,-1730.64) matrix(0.874126,0,0,0.874126,-1525.78,2447.87)">
    <circle cx="1328.5" cy="192.5" r="71.5" style="fill: rgb(159, 207, 240);" />
    <clipPath id="_clip1">
      <circle cx="1328.5" cy="192.5" r="71.5" />
    </clipPath>
    <g clip-path="url(#_clip1)">
      <path d="M812.136 931.772C781.264 912.412 770.342 890.802 770 868c4.695 11.4 12.797 17.578 24 19 4.628 7.91 10.4 15.392 18.5 22l.19-.155c8-6.57 13.718-13.997 18.31-21.845 11.203-1.422 19.305-7.6 24-19-.343 22.89-11.35 44.58-42.5 64l-.364-.228zm.275-36.045c-3.803-11.545-9.908-22.463-18.41-32.727 7.03-4.506 13.204-11.156 18.5-20l.124.207c5.268 8.74 11.4 15.322 18.376 19.793-8.57 10.345-14.703 21.354-18.5 33l-.09-.273z" transform="matrix(1.144,0,0,1.144,399,-820.512)" />
    </g>
    <path d="M1328.5 115.28c-42.62 0-77.22 34.6-77.22 77.22 0 42.62 34.6 77.22 77.22 77.22 42.62 0 77.22-34.6 77.22-77.22 0-42.62-34.6-77.22-77.22-77.22zm0 5.72c39.46 0 71.5 32.038 71.5 71.5s-32.04 71.5-71.5 71.5-71.5-32.038-71.5-71.5 32.04-71.5 71.5-71.5z" />
  </g>
</svg>

<?xml version="1.0" encoding="UTF-8" standalone="no"?>
<!DOCTYPE svg PUBLIC "-//W3C//DTD SVG 1.1//EN" "http://www.w3.org/Graphics/SVG/1.1/DTD/svg11.dtd">
<svg width="135" height="135" viewBox="0 0 135 135" version="1.1" xmlns="http://www.w3.org/2000/svg" xmlns:xlink="http://www.w3.org/1999/xlink" xml:space="preserve" xmlns:serif="http://www.serif.com/" style="fill-rule:evenodd;clip-rule:evenodd;stroke-linejoin:round;stroke-miterlimit:2;">
    <g transform="matrix(1,0,0,1,-745,-818)">
        <g transform="matrix(1,0,0,1,1177,-1730.64)">
            <g transform="matrix(0.874126,0,0,0.874126,-1525.78,2447.87)">
                <circle cx="1328.5" cy="192.5" r="71.5" style="fill:rgb(159,207,240);"/>
                <clipPath id="_clip1">
                    <circle cx="1328.5" cy="192.5" r="71.5"/>
                </clipPath>
                <g clip-path="url(#_clip1)">
                    <g transform="matrix(1.144,0,0,1.144,399,-820.512)">
                        <path d="M812.136,931.772C781.264,912.411 770.342,890.802 770,868C774.695,879.401 782.797,885.578 794,887C798.628,894.91 804.4,902.392 812.5,909L812.689,908.845C820.69,902.275 826.408,894.848 831,887C842.203,885.578 850.305,879.401 855,868C854.657,890.891 843.65,912.58 812.5,932L812.136,931.772ZM812.411,895.727C808.607,884.182 802.502,873.264 794,863C801.031,858.494 807.204,851.844 812.5,843L812.624,843.207C817.892,851.948 824.024,858.529 831,863C822.431,873.345 816.297,884.354 812.5,896L812.411,895.727Z"/>
                    </g>
                </g>
                <path d="M1328.5,115.28C1285.88,115.28 1251.28,149.881 1251.28,192.5C1251.28,235.119 1285.88,269.72 1328.5,269.72C1371.12,269.72 1405.72,235.119 1405.72,192.5C1405.72,149.881 1371.12,115.28 1328.5,115.28ZM1328.5,121C1367.96,121 1400,153.038 1400,192.5C1400,231.962 1367.96,264 1328.5,264C1289.04,264 1257,231.962 1257,192.5C1257,153.038 1289.04,121 1328.5,121Z"/>
            </g>
        </g>
    </g>
</svg>
